X:739
%%etbk:tnset id:475,pos:3,rep:3x,ant:
%%etbk:wsite https://thesession.org/tunes/935
%%etbk:video src:ytube,cde:2p0Igh5EXjk,desc:
%%etbk:color #ffffcc
%%etbk:pldat 2016-06-09T19:22,2016-06-08T16:41,2016-06-07T16:42,2016-06-06T18:33,2016-06-04T15:52,2016-06-02T19:05,2016-06-01T17:02,2016-05-31T17:09,2016-05-29T11:54,2016-05-19T18:29,2016-05-18T16:04,2016-05-17T15:47,2016-05-16T14:23,2016-05-15T14:48,2016-05-14T15:35,2016-05-13T17:18,2016-05-12T18:19,2016-05-11T16:53,2016-05-09T18:37,2016-04-30T17:12,2016-03-03T19:16,2016-03-02T16:52,2016-03-01T16:58,2016-02-29T19:11,2016-02-27T14:02,2016-02-22T18:36,2016-02-17T17:58,2016-02-04T18:30,2016-02-03T15:33,2016-02-02T16:04,2016-02-01T18:59,2016-01-30T13:56,2016-01-28T18:39,2016-01-27T17:01,2016-01-26T15:40,2016-01-24T14:56,2016-01-23T15:07,2016-01-21T18:53,2016-01-20T15:34,2016-01-18T18:43,2016-01-17T11:27,2016-01-16T14:47,2016-01-12T17:14,2016-01-04T18:37,2015-12-31T13:50,2015-12-27T13:58,2015-12-21T18:39,2015-12-06T14:16,2015-11-20T15:53,2015-11-19T18:14,2015-11-18T15:45,2015-11-17T16:13,2015-11-15T14:02,2015-11-14T14:44,2015-11-13T17:42,2015-11-12T18:35,2015-11-11T17:11,2015-11-10T16:08,2015-11-09T19:15,2015-11-08T12:08,2015-11-04T17:27,2015-10-31T17:17,2015-10-25T15:15,2015-10-24T14:42,2015-10-20T16:47,2015-10-17T14:53,2015-10-15T18:40,2015-10-14T17:04,2015-10-13T17:23,2015-10-12T18:39,2015-10-06T16:52,2015-09-30T16:46,2015-09-29T15:50,2015-09-28T19:04,2015-09-10T16:47,2015-09-09T16:47,2015-09-08T19:01,2015-09-07T18:30,2015-09-06T14:15,2015-09-03T17:10,2015-09-02T17:11,2015-09-01T17:25,2015-08-31T17:57,2015-08-30T15:10,2015-08-28T18:58,2015-08-27T18:58,2015-08-26T16:50,2015-08-24T19:06,2015-08-23T15:20,2015-08-19T15:48,2015-08-17T19:02,2015-08-14T15:14,2015-08-13T18:04,2015-08-11T17:43,2015-08-09T16:21,2015-08-02T11:44,2015-08-01T16:50,2015-07-31T18:16,2015-07-30T19:22,2015-07-29T16:48,2015-07-25T14:50,2015-07-24T18:32,2015-07-23T18:11,2015-07-20T18:51,2015-07-18T14:49,2015-07-17T09:56,2015-07-15T16:50,2015-07-07T09:44,2015-06-17T17:50,2015-06-13T17:06,2015-06-08T18:33,2015-06-04T18:23,2015-06-01T18:14,2015-05-31T14:18,2015-05-27T19:25,2015-05-25T10:10
T: 1st August
Z: Piano Box Version by Martin Fleischmann
H: Created 2015-05-23 /  Last Modified 2015-08-08
R: reel
M: 4/4
L: 1/8
K: Edor
|:!1!D~E3 !4!GDE!4!G|!2!A!3!~B3 !3!BAG!4!B|!4!(3BBA AB !3!AGE!2!A |!3!B!5!edB !2!A!1!G!2!E!5!A|
!4!G!1!~E3 !4!GDE!4!G|!2!A!3!~B3 BAG!4!B|!4!(3BBA AB !3!AG!1!E!2!D|1 !1!EG!3!AE GAEG:|2 !1!E2A!2!G !1!AB!4!d!2!e||
|:!3!fgag !3!fedB|!5!e3 d B!1!A!2!G!1!D| !1!E!2!~G3 A2 GA|!4!~B3 !5!d !4!B!3!A!2!G!1!D|
|E!2!~G3 !3!A!1!~G3|!3!B!5!e dB !2!A!1!G!2!E!3!G|!1!D!2!E!3!G!5!B !4!A^GA!5!B|1 !3!G2 GF !1!G!2!B !4!d!2!e:|2 !3!G2 GF GBFG||


